X: 2
T:Old Woman Tossed Up, Sherborne 1
M:2/2
L:1/8
A:Sherborne
P:A(A2B2)5A
K:G
P:A
GAB2 c2d2|edc2 B2G2|cBc2 A2d2|B2A2 G4||
P:B
Bcd2 Bcd2|Bcd2 edA2|ABc2 ABc2|dcB2 A4|
GAB2 c2d2|edc2 B2G2|cBc2 A2d2|B2A2 G4||
